X: 327
T:Scartaglen Polka
R:polka
M:2/4
L:1/16
S:Matt Cranitch Book
Z:Added by alf.warnock@rogers.com
K:D
B|"D"A2F2 A4|"G"B2G2 B4|"A"c2A2 B2cd|"D"e2d2 "G"BcdB|
"D"A2F2 A4|"G"B2G2 B4|"A"c2A2 ABcd|"D"e2d2 d4:|
B|"D"A2d2 f4|"A"f2e2 e4|e2f2 g2a2|"G"b2a2 "D"a3f|
e2f2 g2ag|"A"f2e2 e3f|e2f2 g2Bc|"D"e2d2 d3:|
